static/images/platforms/light/remix.svg

<svg width="32" height="32" viewBox="0 0 32 32" fill="none" xmlns="http://www.w3.org/2000/svg">
    <path
        d="M17.1397 3.33331C23.5041 3.33331 26.6668 6.435 26.6668 11.3896C26.6668 15.0955 24.4412 17.5124 21.4347 17.9152C23.9727 18.4389 25.4563 19.9293 25.7297 22.8698L25.7693 23.4106L25.8038 23.9161L25.8336 24.389L25.8544 24.7456L25.8766 25.1663L25.8882 25.4064L25.9046 25.7878L25.9179 26.1481L25.9245 26.3551L25.9334 26.6869L25.941 27.0663L25.9438 27.2496L25.9488 27.7809L25.9505 28.3352L25.9505 28.6666H19.3873L19.3877 28.5284L19.39 28.2599L19.3939 27.9984L19.4053 27.3649L19.4082 27.1525L19.4104 26.8195L19.4101 26.6066L19.4082 26.3833L19.4055 26.208L19.4001 25.9626L19.3923 25.7024L19.3819 25.4257L19.3685 25.1309L19.3606 24.9762L19.3472 24.7345L19.3317 24.4805L19.3078 24.1217L19.2872 23.8366C19.2813 23.7486 19.2744 23.6627 19.2667 23.5789L19.2498 23.4139C19.0331 21.466 18.2786 20.6699 16.9862 20.4044L16.8773 20.3834C16.8038 20.3703 16.7287 20.3588 16.652 20.3487L16.5356 20.3346C16.5159 20.3325 16.4962 20.3304 16.4764 20.3284L16.3563 20.3176L16.2336 20.3088L16.1085 20.3019L15.9823 20.2969L15.8536 20.2936L15.7225 20.292L5.3335 20.2918V15.015H15.9684C16.1423 15.015 16.3108 15.0116 16.474 15.0047L16.6353 14.9967L16.7931 14.9862L16.9472 14.9734C16.9726 14.9711 16.9979 14.9686 17.023 14.9661L17.1718 14.9496C17.2698 14.9378 17.3654 14.9243 17.4586 14.9091L17.5966 14.8851C19.3224 14.5648 20.1852 13.6267 20.1852 11.7962C20.1852 9.7419 18.7797 8.49687 15.9684 8.49687H5.3335V3.33331H17.1397ZM12.2732 24.7328C13.1343 24.7328 13.4946 25.2224 13.6229 25.691L13.6398 25.7584L13.6537 25.8252L13.6628 25.8779L13.6667 25.904L13.6731 25.9554L13.678 26.0058L13.6799 26.0306L13.6825 26.0791L13.6833 26.1028L13.684 26.1489V28.6666H5.3335V24.7328H12.2732Z"
        fill="#56565C" />
</svg>

<svg fill="none" viewBox="0 0 32 32">
    <path fill="#56565C"
        d="M17.14 3.333c6.364 0 9.527 3.102 9.527 8.057 0 3.705-2.226 6.122-5.232 6.525 2.538.524 4.021 2.014 4.295 4.955l.04.54.034.506.03.473.02.357.023.42.011.24.017.382.013.36.006.207.01.332.007.38.003.183.005.53.002.555v.332h-6.564v-.139l.003-.268.004-.262.011-.633.003-.212.002-.333v-.213l-.002-.224-.003-.175-.005-.245-.008-.26-.01-.277-.014-.295-.007-.155-.014-.241-.015-.255-.024-.358-.02-.285a10.47 10.47 0 0 0-.021-.258l-.017-.165c-.217-1.948-.971-2.744-2.264-3.01l-.109-.02a5.018 5.018 0 0 0-.225-.035l-.116-.014-.06-.007-.12-.01-.122-.01-.126-.006-.126-.005-.128-.003-.131-.002H5.332v-5.277h10.635c.174 0 .343-.003.506-.01l.161-.008.158-.01.154-.014.076-.007.149-.016c.098-.012.193-.026.287-.04l.138-.025c1.725-.32 2.588-1.258 2.588-3.089 0-2.054-1.405-3.3-4.217-3.3H5.333V3.334H17.14Zm-4.867 21.4c.861 0 1.222.49 1.35.958l.017.067.014.067.009.053.004.026.006.051.005.05.002.026.002.048.001.024.001.046v2.518h-8.35v-3.934h6.94Z" />
</svg>
